apps/16/gnome-do.svg

<?xml version="1.0" encoding="UTF-8" standalone="no"?>
<!-- Created with Inkscape (http://www.inkscape.org/) -->
<svg
   xmlns:svg="http://www.w3.org/2000/svg"
   xmlns="http://www.w3.org/2000/svg"
   xmlns:xlink="http://www.w3.org/1999/xlink"
   version="1.0"
   width="16"
   height="16"
   id="svg4375">
  <defs
     id="defs4377">
    <linearGradient
       id="linearGradient2973">
      <stop
         id="stop2975"
         style="stop-color:#621359;stop-opacity:1"
         offset="0" />
      <stop
         id="stop2977"
         style="stop-color:#a35f9c;stop-opacity:1"
         offset="1" />
    </linearGradient>
    <linearGradient
       x1="34.580818"
       y1="46.148075"
       x2="34.580818"
       y2="3.0448537"
       id="linearGradient4373"
       xlink:href="#linearGradient2973"
       gradientUnits="userSpaceOnUse"
       gradientTransform="matrix(0.3191203,0,0,0.3174019,0.3411166,0.3784635)" />
    <linearGradient
       id="linearGradient3242-593-605">
      <stop
         id="stop2544"
         style="stop-color:#d196bf;stop-opacity:1"
         offset="0" />
      <stop
         id="stop2546"
         style="stop-color:#bb70b6;stop-opacity:1"
         offset="0.26238" />
      <stop
         id="stop2548"
         style="stop-color:#954a9a;stop-opacity:1"
         offset="0.66093999" />
      <stop
         id="stop2550"
         style="stop-color:#6c3b77;stop-opacity:1"
         offset="1" />
    </linearGradient>
    <linearGradient
       x1="22.226261"
       y1="3.8111546"
       x2="22.226261"
       y2="44.286263"
       id="linearGradient4371"
       xlink:href="#linearGradient3242-593-605"
       gradientUnits="userSpaceOnUse"
       gradientTransform="matrix(0.3191203,0,0,0.3174019,0.3411166,0.3784635)" />
    <linearGradient
       id="linearGradient2238">
      <stop
         id="stop2240"
         style="stop-color:#ffffff;stop-opacity:1"
         offset="0" />
      <stop
         id="stop2242"
         style="stop-color:#ffffff;stop-opacity:0"
         offset="1" />
    </linearGradient>
    <linearGradient
       x1="24.675762"
       y1="4.1577182"
       x2="24.675762"
       y2="46.698467"
       id="linearGradient4367"
       xlink:href="#linearGradient2238"
       gradientUnits="userSpaceOnUse"
       gradientTransform="matrix(0.2885901,0,0,0.281741,1.0734846,1.5216395)" />
  </defs>
  <g
     id="layer1">
    <g
       id="g4402">
      <rect
         width="14.997868"
         height="12.997867"
         rx="1.5284374"
         ry="1.5617938"
         x="0.50106621"
         y="1.5010667"
         id="rect1316"
         style="fill:url(#linearGradient4371);fill-opacity:1;fill-rule:evenodd;stroke:url(#linearGradient4373);stroke-width:1.00213301;stroke-linecap:round;stroke-linejoin:round;stroke-miterlimit:4;stroke-dasharray:none;stroke-dashoffset:0;stroke-opacity:1" />
      <path
         d="M 8.0060546,3.0190045 C 7.5455826,3.0190045 7.2388156,2.9061655 7.2388156,3.3667325 L 7.2388156,4.8175965 C 6.9388976,4.8950135 6.6006976,5.0262035 6.3397066,5.1773135 L 5.3806576,4.2900085 C 5.2178546,4.1271725 5.1735376,4.1699765 4.9610726,4.1699765 C 4.7486096,4.1699765 4.6538446,4.2922545 4.4695606,4.4698675 C 4.0531116,4.8712405 3.9417566,5.0231485 4.2126676,5.2888645 L 5.1528836,6.3164205 C 4.9939246,6.5800455 4.8611356,6.9458625 4.7812516,7.2516885 L 3.3426786,7.2516885 C 2.8822066,7.2516885 3.0189996,7.5465295 3.0189996,8.0070945 C 3.0189996,8.4676615 2.9061826,8.7864865 3.3666536,8.7864865 L 4.7812516,8.7864865 C 4.8609816,9.0903125 4.9944086,9.4349505 5.1528836,9.6977715 L 4.2178096,10.692993 C 3.8525016,11.068303 4.1086746,11.28375 4.4575726,11.580295 C 4.8084616,11.878534 5.0130956,12.133785 5.3386986,11.808117 L 6.3397066,10.836879 C 6.6006966,10.987987 6.9748616,11.119179 7.2747796,11.196598 L 7.2388156,12.587507 C 7.2388156,13.048074 7.5455826,12.995186 8.0060546,12.995186 C 8.4665256,12.995186 8.7972706,13.072054 8.7972706,12.611488 L 8.7852816,11.196598 C 9.0852006,11.119179 9.4114096,10.987987 9.6724026,10.836879 L 10.679404,11.784135 C 11.014031,12.154936 11.276651,11.969142 11.602489,11.616266 C 11.92207,11.270168 12.201545,11.090604 11.830263,10.764935 L 10.859226,9.6977715 C 11.018183,9.4341445 11.150974,9.0923095 11.230858,8.7864865 L 12.561539,8.7864865 C 13.022009,8.7864865 12.993111,8.4676615 12.993111,8.0070945 C 12.993111,7.5465295 13.081949,7.2516885 12.62148,7.2516885 L 11.230858,7.2516885 C 11.151127,6.9478595 11.0177,6.5792395 10.859226,6.3164205 L 11.794298,5.2372655 C 12.1199,4.9115965 11.956591,4.8251345 11.656435,4.4758625 C 11.336067,4.1030715 11.099302,3.7870025 10.763321,4.2060735 L 9.6724026,5.1773135 C 9.4114086,5.0262035 9.0732116,4.8830225 8.7732926,4.8056035 L 8.7732926,3.3427505 C 8.7732936,2.8821835 8.4665256,3.0190045 8.0060546,3.0190045 z M 8.0060546,6.4722975 C 8.8530856,6.4722975 9.5405326,7.1598875 9.5405326,8.0070945 C 9.5405326,8.8543025 8.8530866,9.5418935 8.0060546,9.5418935 C 7.1590206,9.5418935 6.4715756,8.8543025 6.4715756,8.0070945 C 6.4715756,7.1598875 7.1590206,6.4722975 8.0060546,6.4722975 z"
         id="path12664"
         style="fill:#eeeeec;fill-opacity:1;fill-rule:nonzero;stroke:none;stroke-width:1;stroke-linecap:butt;stroke-linejoin:miter;marker:none;marker-start:none;marker-mid:none;marker-end:none;stroke-miterlimit:4;stroke-dasharray:none;stroke-dashoffset:0;stroke-opacity:1;visibility:visible;display:inline;overflow:visible;enable-background:accumulate" />
      <rect
         width="12.997868"
         height="10.997867"
         rx="0.53651923"
         ry="0.53651923"
         x="1.5010662"
         y="2.5010667"
         id="rect2232"
         style="opacity:0.4;fill:none;fill-opacity:1;fill-rule:evenodd;stroke:url(#linearGradient4367);stroke-width:1.00213301;stroke-linecap:round;stroke-linejoin:round;stroke-miterlimit:4;stroke-dasharray:none;stroke-dashoffset:0;stroke-opacity:1" />
    </g>
  </g>
</svg>

<?xml version="1.0" encoding="UTF-8" standalone="no"?>
<!-- Created with Inkscape (http://www.inkscape.org/) -->

<svg
   xmlns:svg="http://www.w3.org/2000/svg"
   xmlns="http://www.w3.org/2000/svg"
   xmlns:xlink="http://www.w3.org/1999/xlink"
   version="1.0"
   width="16"
   height="16"
   id="svg4375">
  <defs
     id="defs4377">
    <linearGradient
       id="linearGradient2973">
      <stop
         id="stop2975"
         style="stop-color:#621359;stop-opacity:1"
         offset="0" />
      <stop
         id="stop2977"
         style="stop-color:#a35f9c;stop-opacity:1"
         offset="1" />
    </linearGradient>
    <linearGradient
       x1="34.580818"
       y1="46.148075"
       x2="34.580818"
       y2="3.0448537"
       id="linearGradient4373"
       xlink:href="#linearGradient2973"
       gradientUnits="userSpaceOnUse"
       gradientTransform="matrix(0.3191203,0,0,0.3174019,0.3411166,0.3784635)" />
    <linearGradient
       id="linearGradient3242-593-605">
      <stop
         id="stop2544"
         style="stop-color:#d196bf;stop-opacity:1"
         offset="0" />
      <stop
         id="stop2546"
         style="stop-color:#bb70b6;stop-opacity:1"
         offset="0.26238" />
      <stop
         id="stop2548"
         style="stop-color:#954a9a;stop-opacity:1"
         offset="0.66093999" />
      <stop
         id="stop2550"
         style="stop-color:#6c3b77;stop-opacity:1"
         offset="1" />
    </linearGradient>
    <linearGradient
       x1="22.226261"
       y1="3.8111546"
       x2="22.226261"
       y2="44.286263"
       id="linearGradient4371"
       xlink:href="#linearGradient3242-593-605"
       gradientUnits="userSpaceOnUse"
       gradientTransform="matrix(0.3191203,0,0,0.3174019,0.3411166,0.3784635)" />
    <linearGradient
       id="linearGradient2238">
      <stop
         id="stop2240"
         style="stop-color:white;stop-opacity:1"
         offset="0" />
      <stop
         id="stop2242"
         style="stop-color:white;stop-opacity:0"
         offset="1" />
    </linearGradient>
    <linearGradient
       x1="24.675762"
       y1="4.1577182"
       x2="24.675762"
       y2="46.698467"
       id="linearGradient4367"
       xlink:href="#linearGradient2238"
       gradientUnits="userSpaceOnUse"
       gradientTransform="matrix(0.2885901,0,0,0.281741,1.0734846,1.5216395)" />
  </defs>
  <g
     id="layer1">
    <g
       id="g4402">
      <rect
         width="14.997868"
         height="12.997867"
         rx="1.5284374"
         ry="1.5617938"
         x="0.50106621"
         y="1.5010667"
         id="rect1316"
         style="fill:url(#linearGradient4371);fill-opacity:1;fill-rule:evenodd;stroke:url(#linearGradient4373);stroke-width:1.00213301;stroke-linecap:round;stroke-linejoin:round;stroke-miterlimit:4;stroke-opacity:1;stroke-dasharray:none;stroke-dashoffset:0" />
      <path
         d="m 8.0060546,3.0190045 c -0.460472,0 -0.767239,-0.112839 -0.767239,0.347728 l 0,1.450864 c -0.299918,0.077417 -0.638118,0.208607 -0.899109,0.359717 l -0.959049,-0.887305 c -0.162803,-0.162836 -0.20712,-0.120032 -0.419585,-0.120032 -0.212463,0 -0.307228,0.122278 -0.491512,0.299891 -0.416449,0.401373 -0.527804,0.553281 -0.256893,0.818997 l 0.940216,1.027556 c -0.158959,0.263625 -0.291748,0.629442 -0.371632,0.935268 l -1.438573,0 c -0.460472,0 -0.323679,0.294841 -0.323679,0.755406 0,0.460567 -0.112817,0.779392 0.347654,0.779392 l 1.414598,0 c 0.07973,0.303826 0.213157,0.648464 0.371632,0.911285 l -0.935074,0.9952215 c -0.365308,0.37531 -0.109135,0.590757 0.239763,0.887302 0.350889,0.298239 0.555523,0.55349 0.881126,0.227822 l 1.001008,-0.971238 c 0.26099,0.151108 0.635155,0.2823 0.935073,0.359719 l -0.035964,1.390909 c 0,0.460567 0.306767,0.407679 0.767239,0.407679 0.460471,0 0.791216,0.07687 0.791216,-0.383698 l -0.011989,-1.41489 c 0.299919,-0.07742 0.626128,-0.208611 0.887121,-0.359719 l 1.0070014,0.947256 c 0.334627,0.370801 0.597247,0.185007 0.923085,-0.167869 0.319581,-0.346098 0.599056,-0.525662 0.227774,-0.851331 L 10.859226,9.6977715 c 0.158957,-0.263627 0.291748,-0.605462 0.371632,-0.911285 l 1.330681,0 c 0.46047,0 0.431572,-0.318825 0.431572,-0.779392 0,-0.460565 0.08884,-0.755406 -0.371631,-0.755406 l -1.390622,0 C 11.151127,6.9478595 11.0177,6.5792395 10.859226,6.3164205 l 0.935072,-1.079155 c 0.325602,-0.325669 0.162293,-0.412131 -0.137863,-0.761403 -0.320368,-0.372791 -0.557133,-0.68886 -0.893114,-0.269789 l -1.0909184,0.97124 c -0.260994,-0.15111 -0.599191,-0.294291 -0.89911,-0.37171 l 0,-1.462853 c 1e-6,-0.460567 -0.306767,-0.323746 -0.767238,-0.323746 z m 0,3.453293 c 0.847031,0 1.534478,0.68759 1.534478,1.534797 0,0.847208 -0.687446,1.534799 -1.534478,1.534799 -0.847034,0 -1.534479,-0.687591 -1.534479,-1.534799 0,-0.847207 0.687445,-1.534797 1.534479,-1.534797 z"
         id="path12664"
         style="fill:#eeeeec;fill-opacity:1;fill-rule:nonzero;stroke:none;stroke-width:1;marker:none;visibility:visible;display:inline;overflow:visible;enable-background:accumulate" />
      <rect
         width="12.997868"
         height="10.997867"
         rx="0.53651923"
         ry="0.53651923"
         x="1.5010662"
         y="2.5010667"
         id="rect2232"
         style="opacity:0.4;fill:none;stroke:url(#linearGradient4367);stroke-width:1.00213301;stroke-linecap:round;stroke-linejoin:round;stroke-miterlimit:4;stroke-opacity:1;stroke-dasharray:none;stroke-dashoffset:0" />
    </g>
  </g>
</svg>
